X:20
T:Ballydesmond 1 (Polka)
I:titlefont Times-Roman 24
I:partsfont Times-Roman 20
M:2/4
O:Trad. (4.2.2015/NS)
L:1/8
R:polka
K:Ador
|:"Am"EA AB|cd e2|"G"G>F GA|GE ED|
"Am"EA AB|cd ef|"G"ge"Em" dB|"Am"A2 A2:|
|:"Am"a>g ab|ag ef|"G"g>f ga|ge ed|
"Am"ea ab|ag ef|"G"ge "Em"dB|"Am"A2 A2:|
%%vskip
%%vskip
P:Ballydesmond 2
K:Ador
AB |"C"c2"Em"B2|"Am"A2 "Em"G>A
%%vskip
%%begintext
|: C  Em  | Am  Em | G         ||
| Am       | G            | C  Em  | Am    :|
|: Am      | G            | Am      | Em      |
| Am       | G            | C  Em  | Am    :|
%%endtext

